packages/form-js-viewer/src/render/components/icons/Radio.svg

<svg xmlns="http://www.w3.org/2000/svg" width="54" height="54" fill="currentcolor"><path d="M27 22c-2.76 0-5 2.24-5 5s2.24 5 5 5 5-2.24 5-5-2.24-5-5-5zm0-5c-5.52 0-10 4.48-10 10s4.48 10 10 10 10-4.48 10-10-4.48-10-10-10zm0 18a8 8 0 1 1 0-16 8 8 0 1 1 0 16z"/></svg>

<svg xmlns="http://www.w3.org/2000/svg" width="54" height="54" viewBox="0 0 54 54" fill="currentcolor">
  <path d="M27,22 C24.24,22 22,24.24 22,27 C22,29.76 24.24,32 27,32 C29.76,32 32,29.76 32,27 C32,24.24 29.76,22 27,22 Z M27,17 C21.48,17 17,21.48 17,27 C17,32.52 21.48,37 27,37 C32.52,37 37,32.52 37,27 C37,21.48 32.52,17 27,17 Z M27,35 C22.58,35 19,31.42 19,27 C19,22.58 22.58,19 27,19 C31.42,19 35,22.58 35,27 C35,31.42 31.42,35 27,35 Z"/>
</svg>
